src/assets/XIcon.svg

<svg width="17" height="17" viewBox="0 0 17 17" fill="none" xmlns="http://www.w3.org/2000/svg">
<path d="M10.2378 7.28814L15.0019 1.07396C15.2201 0.789396 15.1765 0.373674 14.9046 0.145335C14.6327 -0.0828976 14.2355 -0.0373989 14.0173 0.247218L9.42862 6.23258L4.83992 0.247218C4.72009 0.0909589 4.53902 1.44487e-05 4.3476 1.44487e-05H0.631185C0.38841 1.44487e-05 0.167145 0.145758 0.0621173 0.374836C-0.0429103 0.603914 -0.0130685 0.875743 0.138868 1.07391L6.76117 9.71188L1.99705 15.9261C1.77892 16.2106 1.82249 16.6263 2.09435 16.8547C2.21089 16.9525 2.35036 17 2.48896 17C2.67377 17 2.85701 16.9154 2.98168 16.7528L7.57043 10.7674L12.1591 16.7528C12.2789 16.9091 12.46 17 12.6514 17H16.3678H16.3688C16.7174 17 17 16.7043 17 16.3395C17 16.171 16.9398 16.0174 16.8407 15.9007L10.2378 7.28814ZM12.9543 15.6789L1.94686 1.32111H4.04479L15.0522 15.6789H12.9543Z" fill="#172E53"/>
</svg>

<svg xmlns="http://www.w3.org/2000/svg" width="17" height="17" fill="none" viewBox="0 0 17 17"><path fill="#172e53" d="m10.238 7.288 4.764-6.214a.68.68 0 0 0-.097-.929.61.61 0 0 0-.888.102L9.43 6.233 4.839.247A.62.62 0 0 0 4.349 0H.63a.63.63 0 0 0-.569.375c-.105.229-.075.5.077.699L6.76 9.712l-4.764 6.214a.68.68 0 0 0 .097.929.61.61 0 0 0 .888-.102l4.588-5.986 4.59 5.986c.119.156.3.247.491.247h3.717c.35 0 .632-.296.632-.66a.68.68 0 0 0-.16-.44zm2.716 8.39L1.947 1.322h2.098L15.052 15.68z"/></svg>
